assets/img/projects/subvt/subvt-logo.svg

<svg width="169" height="46" viewBox="0 0 169 46" fill="none" xmlns="http://www.w3.org/2000/svg">
<path d="M69.8676 22.5802C68.9726 21.8782 67.9809 21.3102 66.9232 20.8938C65.6922 20.4056 64.4184 20.0335 63.1184 19.7825C62.5242 19.6843 61.9366 19.5498 61.3588 19.3797C60.8406 19.2313 60.3406 19.0254 59.8679 18.7659C59.4761 18.5574 59.1261 18.2781 58.8356 17.9421C58.5786 17.63 58.4428 17.2353 58.4532 16.8307C58.4418 16.3728 58.604 15.9275 58.9073 15.5848C59.2586 15.2107 59.6999 14.9333 60.1888 14.7792C60.8246 14.5741 61.4901 14.4769 62.1578 14.4917C62.8922 14.4896 63.6222 14.6051 64.3203 14.834C65.0279 15.0673 65.6977 15.4028 66.3086 15.8301C66.9638 16.294 67.5498 16.8492 68.0488 17.4788L71.9959 13.4979C70.7078 11.5503 68.7566 10.1392 66.5066 9.5284C65.2448 9.15796 63.7345 8.97273 61.9757 8.97273C60.6778 8.96817 59.3873 9.16839 58.1516 9.56605C56.9827 9.93196 55.8873 10.5017 54.9158 11.249C54.0051 11.9553 53.2502 12.843 52.6987 13.8562C52.1486 14.8736 51.8658 16.0147 51.877 17.1719C51.8616 18.2125 52.0431 19.2466 52.4119 20.2195C52.7725 21.1333 53.3271 21.9575 54.0372 22.635C54.8358 23.3858 55.7605 23.9892 56.7687 24.4172C58.0132 24.9507 59.3065 25.3615 60.6304 25.6438C61.1653 25.7464 61.6881 25.8678 62.1988 26.0077C62.6929 26.1431 63.1779 26.3096 63.651 26.5063C64.0671 26.6754 64.4645 26.8873 64.837 27.1385C65.1503 27.3504 65.4168 27.6246 65.62 27.944C65.8124 28.2544 65.9119 28.6135 65.9068 28.9789C65.9226 29.4491 65.7599 29.9078 65.4516 30.2625C65.1481 30.6078 64.7148 30.8699 64.1518 31.0486C63.5449 31.2343 62.913 31.3247 62.2784 31.3168C60.8984 31.3165 59.535 31.0155 58.2824 30.4348C57.0684 29.8825 55.8631 28.8324 54.6666 27.2845L50.501 31.4708C51.3491 32.5508 52.3396 33.5104 53.4453 34.3233C54.5853 35.1501 55.8595 35.7727 57.2114 36.1637C58.625 36.5927 60.2116 36.8072 61.9711 36.8072C64.0107 36.8072 65.8143 36.4687 67.3819 35.7917C68.9495 35.1147 70.1859 34.1308 71.0911 32.84C71.9947 31.5469 72.447 29.9689 72.4477 28.106C72.4477 26.9049 72.2247 25.8507 71.7785 24.9432C71.3237 24.0236 70.671 23.2165 69.8676 22.5802Z" fill="white"/>
<path d="M88.9279 28.2155C88.9342 28.6966 88.8432 29.174 88.6604 29.6189C88.4861 30.0343 88.2329 30.4117 87.9149 30.7303C87.5874 31.0556 87.197 31.3103 86.7677 31.4787C86.2983 31.6614 85.7984 31.7524 85.2949 31.7469C84.6504 31.7654 84.0139 31.5992 83.4603 31.2677C82.9459 30.9446 82.5449 30.4688 82.313 29.9065C82.0573 29.3185 81.9298 28.6156 81.9306 27.7979V16.064H75.7744V28.6365C75.7744 30.3488 76.0612 31.8184 76.6348 33.0453C77.2085 34.2723 78.0241 35.2113 79.0818 35.8624C80.1388 36.5136 81.4196 36.8395 82.9242 36.8403C84.0179 36.8462 85.1002 36.6175 86.0985 36.1694C87.0621 35.7432 87.9327 35.131 88.6604 34.3677C88.8309 34.1863 88.9916 33.9958 89.1419 33.7972L89.3103 36.4147H95.0841V16.064H88.9279V28.2155Z" fill="white"/>
<path d="M115.424 17.003C114.058 16.0955 112.497 15.6418 110.74 15.6418C109.909 15.6406 109.083 15.77 108.292 16.0252C107.52 16.2728 106.787 16.6277 106.113 17.0794C105.652 17.3879 105.228 17.7499 104.852 18.1577V9.52722H98.6956V36.3805H104.393L104.547 34.2069C104.965 34.6761 105.445 35.085 105.975 35.422C107.446 36.3513 109.15 36.8431 110.888 36.8403C112.52 36.8632 114.12 36.3885 115.476 35.4791C116.828 34.5724 117.892 33.3203 118.67 31.7229C119.448 30.1255 119.836 28.292 119.835 26.2222C119.835 24.1776 119.44 22.3565 118.651 20.7591C117.861 19.1618 116.785 17.9097 115.424 17.003ZM113.283 29.0781C112.941 29.8486 112.389 30.5064 111.69 30.9756C110.974 31.4417 110.135 31.6803 109.281 31.6602C108.338 31.6602 107.523 31.432 106.834 30.9756C106.136 30.5028 105.581 29.8463 105.23 29.0781C104.85 28.2726 104.661 27.3217 104.661 26.2256C104.661 25.1516 104.85 24.2061 105.23 23.3891C105.571 22.6193 106.129 21.9661 106.836 21.5099C107.523 21.0763 108.339 20.8592 109.283 20.8584C110.131 20.8398 110.967 21.066 111.691 21.5099C112.397 21.9627 112.952 22.6172 113.284 23.3891C113.653 24.2068 113.838 25.1523 113.839 26.2256C113.838 27.3225 113.653 28.2733 113.283 29.0781Z" fill="white"/>
<path d="M146.709 9.47363H140.057L135.086 23.1587C134.707 24.181 134.388 25.0558 134.13 25.783C133.872 26.5102 133.643 27.213 133.442 27.8915L133.413 27.9885C133.307 27.6154 133.197 27.2434 133.079 26.876C132.913 26.3649 132.723 25.8153 132.51 25.2273C132.296 24.6393 132.035 23.9494 131.725 23.1575L126.558 9.47363H119.79L130.496 36.3063H135.926L144.399 15.2231H152.146V36.3063H158.646V15.2231H166.79V9.47363H146.709Z" fill="white"/>
<path d="M35.7074 2.83081H8.86889V9.50789H2.2085V36.4136H8.86889V43.0907H35.7074V36.4136H42.3678V9.50789H35.7074V2.83081ZM35.6573 9.56266V19.0078H26.2358V9.55809L35.6573 9.56266ZM18.3416 19.0078H8.91897V9.55809H18.3416V19.0078ZM8.91897 36.3645V26.9183H18.3416V36.3645H8.91897ZM26.2358 26.9183H35.6573V36.3645H26.2358V26.9183Z" fill="white"/>
</svg>

<svg width="169" height="46" fill="none" xmlns="http://www.w3.org/2000/svg"><path d="M69.868 22.58a11.738 11.738 0 0 0-2.945-1.686 21.247 21.247 0 0 0-3.805-1.111 14.742 14.742 0 0 1-1.76-.403 7.24 7.24 0 0 1-1.49-.614 3.601 3.601 0 0 1-1.032-.824 1.68 1.68 0 0 1-.383-1.111 1.816 1.816 0 0 1 .454-1.246 2.992 2.992 0 0 1 1.282-.806 5.982 5.982 0 0 1 1.969-.287 6.877 6.877 0 0 1 2.162.342 7.646 7.646 0 0 1 1.989.996 8.454 8.454 0 0 1 1.74 1.649l3.947-3.981a9.597 9.597 0 0 0-5.49-3.97c-1.261-.37-2.772-.555-4.53-.555a12.341 12.341 0 0 0-3.824.593 10.406 10.406 0 0 0-3.236 1.683 8.353 8.353 0 0 0-2.217 2.607 6.833 6.833 0 0 0-.822 3.316 8.254 8.254 0 0 0 .535 3.047c.36.914.915 1.738 1.625 2.416a9.285 9.285 0 0 0 2.732 1.782 20.84 20.84 0 0 0 3.861 1.227c.535.102 1.058.224 1.569.364.494.135.979.302 1.452.498.416.17.813.381 1.186.633.313.211.58.486.783.805.192.31.292.67.287 1.035.016.47-.147.929-.455 1.284-.304.345-.737.607-1.3.786a6.141 6.141 0 0 1-1.874.268 9.505 9.505 0 0 1-3.996-.882c-1.214-.552-2.419-1.603-3.615-3.15L50.5 31.47a15.166 15.166 0 0 0 2.944 2.852c1.14.827 2.414 1.45 3.766 1.84 1.414.43 3 .644 4.76.644 2.04 0 3.843-.338 5.41-1.015 1.569-.677 2.805-1.661 3.71-2.952.904-1.293 1.356-2.871 1.357-4.734 0-1.201-.223-2.255-.67-3.163a6.937 6.937 0 0 0-1.91-2.363Zm19.06 5.635a3.57 3.57 0 0 1-.268 1.404 3.379 3.379 0 0 1-1.893 1.86 3.962 3.962 0 0 1-1.472.268 3.382 3.382 0 0 1-1.835-.48 2.923 2.923 0 0 1-1.147-1.36c-.256-.588-.383-1.291-.382-2.11V16.065h-6.157v12.573c0 1.712.287 3.181.86 4.408.575 1.227 1.39 2.166 2.448 2.817 1.057.652 2.338.977 3.842.978a7.65 7.65 0 0 0 3.174-.67 8.024 8.024 0 0 0 2.562-1.802 7.26 7.26 0 0 0 .482-.57l.168 2.617h5.774V16.064h-6.156v12.151Zm26.496-11.212c-1.366-.907-2.927-1.361-4.684-1.361a7.935 7.935 0 0 0-2.448.383 8.669 8.669 0 0 0-2.179 1.054 7.02 7.02 0 0 0-1.261 1.079v-8.63h-6.156V36.38h5.697l.154-2.173c.418.47.898.878 1.428 1.215a9.172 9.172 0 0 0 4.913 1.418 8.034 8.034 0 0 0 4.588-1.36c1.352-.908 2.416-2.16 3.194-3.757.778-1.598 1.166-3.431 1.165-5.5 0-2.045-.395-3.866-1.184-5.464-.79-1.597-1.866-2.85-3.227-3.756Zm-2.141 12.075a4.467 4.467 0 0 1-1.593 1.898 4.231 4.231 0 0 1-2.409.684c-.943 0-1.758-.228-2.447-.684a4.601 4.601 0 0 1-1.604-1.898c-.38-.805-.569-1.756-.569-2.852 0-1.074.189-2.02.569-2.837a4.316 4.316 0 0 1 1.606-1.88c.687-.433 1.503-.65 2.447-.65a4.422 4.422 0 0 1 2.408.65 4.207 4.207 0 0 1 1.593 1.88c.369.818.554 1.763.555 2.837-.001 1.097-.186 2.047-.556 2.852Zm33.426-19.604h-6.652l-4.971 13.685a203.517 203.517 0 0 0-.956 2.624 42.03 42.03 0 0 0-.688 2.108l-.029.098a34.25 34.25 0 0 0-.334-1.113 52.356 52.356 0 0 0-.569-1.649 93.041 93.041 0 0 0-.785-2.07l-5.167-13.683h-6.768l10.706 26.832h5.43l8.473-21.083h7.747v21.083h6.5V15.223h8.144v-5.75h-20.081ZM35.707 2.83H8.87v6.678H2.21v26.906h6.66v6.677h26.838v-6.677h6.66V9.508h-6.66V2.83Zm-.05 6.733v9.445h-9.421v-9.45l9.421.005Zm-17.315 9.445H8.919v-9.45h9.423v9.45ZM8.919 36.365v-9.447h9.423v9.447H8.919Zm17.317-9.447h9.421v9.447h-9.421v-9.447Z" fill="#fff"/></svg>
